flaticon/transport/alloy-wheel.svg

<svg xmlns="http://www.w3.org/2000/svg" width="32" height="32" viewBox="0 0 24 24">
    <path d="M 12 0 C 5.398438 0 0 5.398438 0 12 C 0 18.601562 5.398438 24 12 24 C 18.601562 24 24 18.601562 24 12 C 24 5.398438 18.601562 0 12 0 Z M 12 23.199219 C 5.839844 23.199219 0.800781 18.160156 0.800781 12 C 0.800781 5.839844 5.839844 0.800781 12 0.800781 C 18.160156 0.800781 23.199219 5.839844 23.199219 12 C 23.199219 18.160156 18.160156 23.199219 12 23.199219 Z M 12 23.199219"/>
    <path d="M 13.433594 3.316406 L 13.28125 3.28125 C 13.078125 3.238281 12.921875 3.199219 12.71875 3.199219 C 12.28125 3.160156 11.761719 3.160156 11.320312 3.199219 C 11.121094 3.238281 10.960938 3.238281 10.761719 3.28125 L 10.398438 3.320312 L 10.398438 3.347656 C 8.292969 3.738281 6.445312 4.886719 5.148438 6.496094 L 5.121094 6.480469 L 4.921875 6.761719 C 4.519531 7.320312 4.160156 7.878906 3.921875 8.480469 L 3.800781 8.800781 L 3.804688 8.804688 C 3.414062 9.796875 3.199219 10.875 3.199219 12 C 3.199219 12.917969 3.34375 13.804688 3.605469 14.636719 L 3.601562 14.640625 L 3.71875 15 C 3.921875 15.519531 4.160156 16.039062 4.441406 16.519531 C 4.441406 16.601562 4.480469 16.640625 4.519531 16.679688 C 4.601562 16.800781 4.71875 16.960938 4.800781 17.078125 L 5 17.320312 L 5.003906 17.320312 C 6.519531 19.308594 8.863281 20.640625 11.511719 20.785156 C 11.664062 20.800781 11.832031 20.800781 12 20.800781 C 12.167969 20.800781 12.335938 20.800781 12.488281 20.785156 C 15.101562 20.640625 17.421875 19.339844 18.941406 17.390625 L 18.960938 17.398438 L 19.160156 17.121094 C 19.28125 17 19.359375 16.839844 19.441406 16.71875 C 19.441406 16.703125 19.445312 16.679688 19.457031 16.65625 C 19.476562 16.625 19.496094 16.597656 19.511719 16.570312 C 19.515625 16.566406 19.515625 16.5625 19.519531 16.558594 C 19.535156 16.53125 19.550781 16.503906 19.566406 16.476562 C 20.347656 15.164062 20.800781 13.632812 20.800781 12 C 20.800781 7.648438 17.597656 4.007812 13.433594 3.316406 Z M 12.800781 16.398438 L 12.800781 19.960938 C 12.800781 19.960938 12.796875 19.960938 12.796875 19.960938 C 12.757812 19.960938 12.679688 19.960938 12.640625 19.960938 C 12.199219 20 11.800781 20 11.359375 19.960938 C 11.339844 19.960938 11.308594 19.960938 11.28125 19.960938 L 11.28125 16.398438 C 11.28125 15.800781 11 15.28125 10.480469 14.960938 C 9.960938 14.640625 9.359375 14.640625 8.839844 14.878906 L 5.359375 16.359375 C 5.320312 16.320312 5.320312 16.28125 5.28125 16.238281 L 5.199219 16.121094 C 5 15.800781 4.839844 15.480469 4.679688 15.121094 L 7.878906 13.921875 L 7.921875 13.878906 C 8.359375 13.640625 8.679688 13.121094 8.761719 12.519531 C 8.839844 11.921875 8.679688 11.320312 8.28125 10.921875 L 4.800781 8.519531 C 4.96875 8.175781 5.160156 7.84375 5.375 7.527344 L 8.480469 9.078125 C 9 9.441406 9.761719 9.441406 10.359375 9.121094 C 10.878906 8.800781 11.199219 8.320312 11.199219 7.71875 L 11.199219 4.039062 C 11.199219 4.039062 11.203125 4.039062 11.203125 4.039062 C 11.242188 4.039062 11.320312 4.039062 11.359375 4.039062 C 11.800781 4 12.238281 4 12.640625 4.039062 C 12.679688 4.039062 12.757812 4.039062 12.796875 4.039062 C 12.796875 4.039062 12.800781 4.039062 12.800781 4.039062 L 12.800781 7.761719 C 12.800781 8.28125 13.039062 8.761719 13.480469 9.039062 C 14.039062 9.359375 14.839844 9.398438 15.480469 9.121094 L 18.601562 7.519531 C 18.800781 7.839844 19 8.199219 19.160156 8.519531 L 15.761719 10.878906 L 15.71875 10.921875 C 15.320312 11.28125 15.160156 11.878906 15.238281 12.519531 C 15.320312 13.121094 15.640625 13.640625 16.078125 13.878906 L 19.359375 15.078125 C 19.199219 15.441406 19.039062 15.761719 18.839844 16.078125 L 18.761719 16.199219 C 18.71875 16.238281 18.71875 16.28125 18.679688 16.320312 L 15.238281 14.878906 C 14.71875 14.601562 14.121094 14.640625 13.601562 14.960938 C 13.121094 15.28125 12.800781 15.800781 12.800781 16.398438 Z M 16.441406 13.238281 C 16.199219 13.078125 16.039062 12.800781 16 12.480469 C 15.960938 12.121094 16.039062 11.761719 16.238281 11.558594 L 19.523438 9.28125 C 19.832031 10.132812 20 11.046875 20 12 C 20 12.839844 19.867188 13.648438 19.625 14.410156 Z M 18.132812 6.878906 L 15.121094 8.398438 C 14.761719 8.601562 14.238281 8.558594 13.921875 8.359375 C 13.71875 8.238281 13.601562 8.039062 13.601562 7.761719 L 13.601562 4.160156 C 15.402344 4.53125 16.988281 5.511719 18.132812 6.878906 Z M 10.398438 4.160156 L 10.398438 7.71875 C 10.398438 8.078125 10.199219 8.28125 10 8.398438 C 9.640625 8.558594 9.199219 8.558594 8.878906 8.359375 L 5.882812 6.859375 C 7.023438 5.503906 8.605469 4.53125 10.398438 4.160156 Z M 4 12 C 4 11.042969 4.171875 10.125 4.480469 9.273438 L 7.71875 11.519531 C 7.921875 11.71875 8 12.078125 7.960938 12.441406 C 7.878906 12.800781 7.761719 13.078125 7.519531 13.199219 L 4.359375 14.363281 C 4.125 13.613281 4 12.820312 4 12 Z M 5.765625 16.996094 L 9.078125 15.601562 C 9.359375 15.441406 9.679688 15.480469 9.960938 15.640625 C 10.238281 15.800781 10.398438 16.078125 10.398438 16.398438 L 10.398438 19.839844 C 8.542969 19.457031 6.914062 18.425781 5.765625 16.996094 Z M 13.601562 19.839844 L 13.601562 16.398438 C 13.601562 16.078125 13.761719 15.800781 14 15.640625 C 14.28125 15.480469 14.601562 15.441406 14.921875 15.601562 L 18.1875 17.054688 C 17.042969 18.453125 15.433594 19.460938 13.601562 19.839844 Z M 13.601562 19.839844"/>
    <path d="M 12 10 C 10.878906 10 10 10.878906 10 12 C 10 13.121094 10.878906 14 12 14 C 13.121094 14 14 13.121094 14 12 C 14 10.878906 13.121094 10 12 10 Z M 12 13.199219 C 11.320312 13.199219 10.800781 12.679688 10.800781 12 C 10.800781 11.320312 11.320312 10.800781 12 10.800781 C 12.679688 10.800781 13.199219 11.320312 13.199219 12 C 13.199219 12.679688 12.679688 13.199219 12 13.199219 Z M 12 13.199219"/>
</svg>

<svg xmlns="http://www.w3.org/2000/svg" width="32" height="32" viewBox="0 0 24 24">
    <path d="M12 0C5.398 0 0 5.398 0 12s5.398 12 12 12 12-5.398 12-12S18.602 0 12 0zm0 23.2C5.84 23.2.8 18.16.8 12 .8 5.84 5.84.8 12 .8 18.16.8 23.2 5.84 23.2 12c0 6.16-5.04 11.2-11.2 11.2zm0 0"/>
    <path d="M13.434 3.316l-.153-.035c-.203-.043-.36-.082-.562-.082a8.359 8.359 0 0 0-1.399 0c-.199.04-.36.04-.558.082l-.364.04v.027a8.823 8.823 0 0 0-5.25 3.148l-.027-.016-.2.282c-.401.558-.76 1.117-1 1.718l-.12.32.004.005A8.705 8.705 0 0 0 3.199 12c0 .918.145 1.805.406 2.637l-.003.004.117.359c.203.52.441 1.04.722 1.52 0 .082.04.12.079.16.082.12.199.28.28.398l.2.242h.004a8.793 8.793 0 0 0 6.508 3.465c.152.016.32.016.488.016.168 0 .336 0 .488-.016a8.807 8.807 0 0 0 6.453-3.394l.02.007.2-.277c.12-.121.198-.281.28-.402 0-.016.004-.04.016-.063.02-.031.04-.058.055-.086.004-.004.004-.008.008-.011l.046-.082A8.73 8.73 0 0 0 20.801 12c0-4.352-3.203-7.992-7.367-8.684zM12.8 16.398v3.563h-.16c-.442.039-.84.039-1.282 0h-.078v-3.563c0-.597-.281-1.117-.8-1.437-.52-.32-1.122-.32-1.641-.082l-3.48 1.48c-.04-.039-.04-.078-.079-.12L5.2 16.12c-.199-.32-.36-.64-.52-1l3.2-1.2.043-.042c.437-.238.758-.758.84-1.36.078-.597-.082-1.199-.48-1.597L4.8 8.52c.168-.344.36-.676.574-.993L8.48 9.078c.52.363 1.282.363 1.88.043.519-.32.84-.8.84-1.402v-3.68h.159c.442-.039.88-.039 1.282 0h.16v3.723c0 .52.238 1 .68 1.277.558.32 1.359.36 2 .082L18.6 7.52c.2.32.399.68.56 1l-3.4 2.359-.042.043c-.399.36-.559.957-.48 1.598.081.601.402 1.12.84 1.359l3.28 1.2a7.53 7.53 0 0 1-.52 1l-.077.12c-.043.04-.043.082-.082.121l-3.442-1.441c-.52-.277-1.117-.238-1.636.082-.48.32-.801.84-.801 1.437zm3.64-3.16A1.048 1.048 0 0 1 16 12.48c-.04-.359.04-.718.238-.921l3.285-2.278a7.958 7.958 0 0 1 .102 5.13zm1.692-6.36l-3.012 1.52c-.36.204-.883.16-1.2-.039-.202-.12-.32-.32-.32-.597V4.16a8.033 8.033 0 0 1 4.532 2.719zM10.398 4.16V7.72c0 .36-.199.562-.398.68-.36.16-.8.16-1.121-.04l-2.996-1.5a8.041 8.041 0 0 1 4.515-2.699zM4 12c0-.957.172-1.875.48-2.727L7.72 11.52c.203.199.281.558.242.921-.082.36-.2.637-.441.758l-3.16 1.164A7.906 7.906 0 0 1 4 12zm1.766 4.996l3.312-1.394c.281-.16.602-.122.883.039.277.16.437.437.437.757v3.442a8.04 8.04 0 0 1-4.632-2.844zm7.836 2.844v-3.442c0-.32.16-.597.398-.757.281-.16.602-.2.922-.04l3.265 1.454a8.042 8.042 0 0 1-4.585 2.785zm0 0"/>
    <path d="M12 10c-1.121 0-2 .879-2 2s.879 2 2 2 2-.879 2-2-.879-2-2-2zm0 3.2c-.68 0-1.2-.52-1.2-1.2 0-.68.52-1.2 1.2-1.2.68 0 1.2.52 1.2 1.2 0 .68-.52 1.2-1.2 1.2zm0 0"/>
</svg>
